X:1
T:Wait for the Wagon
M:2/4
L:1/8
K:C
 G/2G/2|| cc CC| EG GG| GG FF| E2 z G/2G/2| cc CC| EG z G| AA BB| c2 z|\
 G| cc CC| E G2 z/2 G/2| GG FF| E2 z G| cc CC| EG z G| AA BB| c2 z2|\
 c2 C3/2 C/2| EG z2| e2 e3/2 d/2| cA z2| c2 C3/2 C/2| EG GG| A2 BB|\
 c2 z||
